ui/StatusQ/src/assets/img/icons/tiny/chat.svg

<svg fill="none" height="16" viewBox="0 0 16 16" width="16" xmlns="http://www.w3.org/2000/svg"><path clip-rule="evenodd" d="m1.70001 7.99995c0-3.47939 2.82061-6.3 6.3-6.3s6.29999 2.82061 6.29999 6.3v4.00005c0 1.2702-1.0297 2.3-2.3 2.3h-3.99999c-3.47939 0-6.3-2.8207-6.3-6.30005zm6.3-4.8c-2.65096 0-4.8 2.14903-4.8 4.8 0 2.65095 2.14904 4.80005 4.8 4.80005h3.99999c.4418 0 .8-.3582.8-.8v-4.00005c0-2.65097-2.149-4.8-4.79999-4.8z" fill="#000" fill-rule="evenodd"/></svg>

<svg width="16" height="16" viewBox="0 0 16 16" fill="none" xmlns="http://www.w3.org/2000/svg">
<path fill-rule="evenodd" clip-rule="evenodd" d="M1.70001 7.99995C1.70001 4.52056 4.52062 1.69995 8.00001 1.69995C11.4794 1.69995 14.3 4.52056 14.3 7.99995V12C14.3 13.2702 13.2703 14.3 12 14.3H8.00001C4.52062 14.3 1.70001 11.4793 1.70001 7.99995ZM8.00001 3.19995C5.34905 3.19995 3.20001 5.34898 3.20001 7.99995C3.20001 10.6509 5.34905 12.8 8.00001 12.8H12C12.4418 12.8 12.8 12.4418 12.8 12V7.99995C12.8 5.34898 10.651 3.19995 8.00001 3.19995Z" fill="black"/>
</svg>
